X: 1
T: What you please
%R: jig
B: "Twenty Four Country Dances for the Year 1780", Thomas Skillern, ed. p.1 #1
F: http://www.vwml.org/browse/browse-collections-dance-tune-books/browse-skillerns1780#
Z: 2014 John Chambers <jc:trillian.mit.edu>
M: 6/8
L: 1/8
K: D
(A/G/) |\
FAA Add | cee e2(f/g/) | aff fdd | cee e2(A/G/) |\
FAA Add | cee e2(f/g/) | afd gec | ddd d2 :|
|: (f/g/) |\
afd afd | cAA A2(f/g/) | afd afd | bee e2 (f/g/) |\
afd afd | cAA g2e | fad gec | ddd d2 :|
%%begintext align
%% First and 2d Cu Set change sides & Right hands across .|.
%% the same back again & Left hands across :|. lead down the
%% middle up again and cast off .|: Hands 4 at bottom
%% Right and Left at top :|:
%%endtext

%%sep 1 1 500
%%sep 1 1 500
